outputs/icons/communication/sync_disabled_round.svg

<svg width="1200" height="1200" viewBox="0 0 1200 1200" fill="none" xmlns="http://www.w3.org/2000/svg"><g clip-path="url(#clip0_238_2793)"><path d="M500.005 287V277.5C500.005 243.5 464.504 222 434.005 236.5C424.505 241 416.005 246.5 407.005 251.5L480.005 324.5C492.005 315.5 500.005 302 500.005 287ZM1000.005 600C1000.005 489.5 954.505 390 882.005 318L957.505 242.5C973.005 227 962.005 200 939.505 200H700.005V439.5C700.005 462 727.005 473 742.505 457L812.005 387.5C866.005 442.5 900.005 517 900.005 600C900.005 642.5 891.005 683 875.005 719.5L949.005 793.5C981.005 736 1000.005 670.5 1000.005 600ZM178.505 235C159.005 254.5 159.005 286 178.505 305.5L261.005 388C222.505 450 200.005 522 200.005 600C200.005 710.5 245.505 810 318.005 882L242.504 957.5C227.005 973 238.005 1000 260.505 1000H475.005C489.004 1000 500.005 989 500.005 975V760.5C500.005 738 473.004 727 457.505 743L388.005 812.5C334.005 757.5 300.005 683 300.005 600C300.005 550 313.005 503.5 334.505 462L738.005 865.5C737.505 866.5 737.505 866.5 737.505 867.5C716.005 873.5 700.005 891.5 700.005 913V922C700.005 956 735.505 977.5 766.005 963C781.505 956 796.505 947.5 811.005 938.5L904.505 1032C924.005 1051.5 955.505 1051.5 975.005 1032C994.505 1012.5 994.505 981 975.005 961.5L249.004 235C229.505 215.5 198.005 215.5 178.505 235Z" fill="black"/></g><defs><clipPath id="clip0_238_2793"><path width="24" fill="white" d="M0 0H1200V1200H0V0z"/></clipPath></defs></svg>

<svg xmlns="http://www.w3.org/2000/svg" width="1200" height="1200" fill="none"><g clip-path="url(#a)"><path fill="#000" d="M500.005 287v-9.5c0-34-35.501-55.5-66-41-9.5 4.5-18 10-27 15l73 73c12-9 20-22.5 20-37.5m500 313c0-110.5-45.5-210-118-282l75.5-75.5c15.5-15.5 4.5-42.5-18-42.5h-239.5v239.5c0 22.5 27 33.5 42.5 17.5l69.5-69.5c54 55 88 129.5 88 212.5 0 42.5-9 83-25 119.5l74 74c32-57.5 51-123 51-193.5m-821.5-365c-19.5 19.5-19.5 51 0 70.5l82.5 82.5c-38.5 62-61 134-61 212 0 110.5 45.5 210 118 282l-75.501 75.5c-15.499 15.5-4.499 42.5 18.001 42.5h214.5c13.999 0 25-11 25-25V760.5c0-22.5-27.001-33.5-42.5-17.5l-69.5 69.5c-54-55-88-129.5-88-212.5 0-50 13-96.5 34.5-138l403.5 403.5c-.5 1-.5 1-.5 2-21.5 6-37.5 24-37.5 45.5v9c0 34 35.5 55.5 66 41 15.5-7 30.5-15.5 45-24.5l93.5 93.5c19.5 19.5 51 19.5 70.5 0s19.5-51 0-70.5L249.004 235c-19.499-19.5-50.999-19.5-70.499 0"/></g><defs><clipPath id="a"><path fill="#fff" d="M0 0h1200v1200H0z"/></clipPath></defs></svg>
